X:1
T:Jonas skotska nyckelharpsmarsch
R:Marsch
S:Efter Jonas Hallgren
O:Stockholm, Sörmland
Z:ABC-transkribering av Jonas Hallgren
M:2/4
L:1/16
Q:1/4=70
K:C
|: C3DEF3 G4c4 | A4FA3 G4EG3  | F3EDC3 _B,3CD_B,3 | _B4D4 D4G4 |
   C3DEF3 G4c4 | A4FA3 G4EG3  | F3EDC3 _B,3CDF3 |  PE4C4 C8  :| 
|: z4c4 c4dc3  | _B4G4 G7A  | _B3c_BA3 G3AGF3 | E3FEC3 D4G4 |
   C3DEF3 G4c4 | A4FA3 G4EG3  | F3EDC3 _B,3CDF3 |  PE4C4 C8  :|

